X:1
T:Old Cushion Dance, The
M:3/4
L:1/8
R:Country Dance Tune
B:Elias Howe – Musician’s Omnibus Nos. 6 & 7 (Boston, 1880-1882, p. 632)
B:  http://ks4.imslp.net/files/imglnks/usimg/c/c7/IMSLP601433-PMLP562790-ONeill_Rare_Medium_M40_M8_v6.7_text.pdf
Z:AK/Fiddler’s Companion
K:Gmin
G2d2c2|=B3cA2|G2G2D2|G6||G4d2|d4c2|
d3ed2|c4A2|B4B2|c3dB2|A4G2|G4||A2|
B3cB2|F4F2|G3A G2|D4 D2|B4B2|c3dB2|A4G2|G4||

